static/cards/FrenchDeck/cyberwave/card_diamonds_Q.svg

<svg xmlns="http://www.w3.org/2000/svg" width="822" height="1122" fill="none" viewBox="0 0 822 1122"><rect width="822" height="1122" fill="#1a0033" rx="20"/><g fill="#b366ff" clip-path="url(#a)"><path d="M139.971 182.168q-10.88 0-17.28-5.888-6.272-5.888-6.272-15.616-17.791-1.408-27.648-13.184t-9.856-32q0-14.208 4.992-24.448 4.993-10.24 14.464-15.616 9.473-5.376 22.656-5.376t22.656 5.376 14.464 15.616 4.992 24.448q0 20.864-10.496 32.768t-29.312 12.672q0 7.68 4.736 11.52 4.864 3.84 12.928 3.84 8.32 0 14.464-4.096.512-.384.896-.384.512 0 .896.768l1.792 2.816q.256.384.256.896 0 .768-.896 1.152-4.48 2.56-8.832 3.584-4.224 1.152-9.6 1.152m-18.944-27.136q16.769 0 26.112-10.112 9.344-10.24 9.344-29.44t-9.344-29.312q-9.344-10.24-26.112-10.24t-26.112 10.24Q85.57 96.28 85.571 115.48q0 19.2 9.344 29.44 9.344 10.112 26.112 10.112M112.679 208.481c3.959-5.938 12.683-5.938 16.642 0l21.981 32.972a10 10 0 0 1 0 11.094l-21.981 32.972c-3.959 5.938-12.683 5.938-16.642 0l-21.981-32.972a10 10 0 0 1 0-11.094zM674.029 935.832q10.88 0 17.28 5.888 6.272 5.888 6.272 15.616 17.791 1.408 27.648 13.184t9.856 32q0 14.205-4.992 24.45c-3.328 6.82-8.149 12.03-14.464 15.61-6.315 3.59-13.867 5.38-22.656 5.38s-16.341-1.79-22.656-5.38c-6.315-3.58-11.136-8.79-14.464-15.61q-4.992-10.245-4.992-24.45 0-20.864 10.496-32.768t29.312-12.672q0-7.68-4.736-11.52-4.864-3.84-12.928-3.84-8.32 0-14.464 4.096-.512.384-.896.384-.512 0-.896-.768l-1.792-2.816a1.58 1.58 0 0 1-.256-.896q0-.768.896-1.152 4.48-2.56 8.832-3.584 4.224-1.152 9.6-1.152m18.944 27.136q-16.769 0-26.112 10.112-9.344 10.24-9.344 29.44t9.344 29.31c6.229 6.83 14.933 10.24 26.112 10.24s19.883-3.41 26.112-10.24q9.344-10.11 9.344-29.31t-9.344-29.44q-9.343-10.112-26.112-10.112M701.321 909.519c-3.959 5.938-12.683 5.938-16.642 0l-21.981-32.972a10 10 0 0 1 0-11.094l21.981-32.972c3.959-5.938 12.683-5.938 16.642 0l21.981 32.972a10 10 0 0 1 0 11.094z"/></g><path fill="#8000ff" d="M517.951 488.236c-9.773-28.064 11.497-40.827 0-43.327s-38.93-24.864-45.462-29.541 6.375 23.682 6.793 34.711-8.361 34.3-12.802 44.558c17.505 25.356 55.861 6.203 51.471-6.401"/><path fill="#c9f" d="M464.909 502.119c34.047 23.003 49.415 2.903 53.977-5.432.894-1.633 3.004-2.357 4.651-1.489 16.075 8.483 27.948 8.341 35.917 5.94 3.135-.945 9.254 3.446 8.284 6.573-11.943 38.475-46.766 140.437-75.338 122.296-25.364-16.104-67.534-105.189-75.421-122.198-.715-1.542.004-3.327 1.605-3.898 8.436-3.012 33.216-10.648 46.325-1.792"/><path fill="#b366ff" d="M515.715 259.763c-28.053-13.755-59.051-5.402-73.755 2.391-1.287.682-2.878.419-3.826-.686l-12.943-15.07c-2.186-2.546.82-6.214 3.745-4.57l5.639 3.167c2.149 1.208 4.757-.549 4.445-2.995l-1.333-10.447c-.355-2.789 2.977-4.491 5.028-2.568l9.956 9.335c1.851 1.735 4.886.532 5.046-2l.684-10.838c.172-2.732 3.612-3.825 5.33-1.694l9.848 12.217c1.575 1.954 4.71 1.226 5.262-1.223l2.114-9.384c.68-3.02 4.932-3.156 5.805-.187l2.908 9.897c.696 2.368 3.793 2.93 5.276.958l7.768-10.326c1.731-2.302 5.397-1.077 5.397 1.804v8.824c0 2.527 2.933 3.922 4.893 2.328l8.758-7.123c2.267-1.844 5.564.313 4.784 3.129l-6.417 23.155c-.52 1.876-2.664 2.763-4.412 1.906M532.953 282.771h-99.988l-7.853 66.402s25.586 42.793 55.491 67.606c17.537 14.55 66.517 43.41 71.719 17.601 2.335-11.581 4.734-55.856 4.734-55.856s15.526-.885 13.628-6.913c-1.899-6.027-7.593-7.862-13.628-36.427s-24.103-52.413-24.103-52.413"/><path fill="#f2e6ff" d="M434.276 270.192c55.163-24.837 83.886-5.103 95.402 7.415 2.839 3.085.058 7.264-4.125 6.998-30.821-1.953-64.164 12.026-70.593 15.986-10.211 6.29 0 71.806 19.636 120.55 12.568 23.324 38.121 94.134 18.851 101.682-18.169 7.116-62.36 12.461-82.712 7.777-2.081-.479-3.426-2.398-3.426-4.534V359.381l-.001-.123c-.061-1.854-2.278-75.898 26.968-89.066M555.236 406.728l-.523 8.386c-7.409 1.172-22.988-2.859-27.843-3.562-4.854-.703-5.621-.234-5.365-.937.255-.704-.256.937 4.854-.938s23.512-4.121 28.877-2.949"/><path fill="#f2e6ff" d="M533.183 322.081c-4.703-.083-10.237 1.525-13.524 2.63-1.179.396-1.648 1.614-.408 1.705 3.218.236 10.691-1.958 14.717-1.024 4.778 1.109 10.1 4.776 13.67 4.439.698-.066 1.165-.679 1.281-1.371.141-.84-.259-1.68-1.019-2.064-3.437-1.734-9.583-4.226-14.717-4.315"/><path fill="#8000ff" d="M349.754 651.012c9.774 28.064-11.496 40.827 0 43.327s38.931 24.864 45.463 29.541c6.532 4.678-6.376-23.682-6.794-34.711s8.361-34.3 12.803-44.558c-17.506-25.356-55.861-6.203-51.472 6.401"/><path fill="#c9f" d="M402.797 637.128c-34.047-23.003-49.415-2.902-53.977 5.433-.894 1.632-3.005 2.357-4.651 1.489-16.075-8.483-27.948-8.341-35.917-5.94-3.135.944-9.255-3.446-8.284-6.573 11.943-38.475 46.766-140.437 75.338-122.296 25.364 16.104 67.534 105.189 75.421 122.198.715 1.542-.004 3.327-1.605 3.898-8.436 3.011-33.217 10.648-46.325 1.791"/><path fill="#b366ff" d="M351.991 879.484c28.052 13.756 59.051 5.403 73.755-2.39 1.286-.682 2.877-.419 3.826.686l12.943 15.07c2.186 2.545-.82 6.213-3.746 4.57l-5.638-3.167c-2.149-1.208-4.757.549-4.445 2.995l1.332 10.447c.356 2.789-2.976 4.491-5.027 2.568l-9.956-9.335c-1.851-1.735-4.887-.533-5.046 2l-.684 10.838c-.173 2.731-3.612 3.825-5.33 1.694l-9.848-12.217c-1.575-1.955-4.711-1.226-5.262 1.223l-2.114 9.384c-.681 3.02-4.933 3.156-5.805.187l-2.909-9.898c-.695-2.367-3.792-2.929-5.275-.957l-7.768 10.326c-1.732 2.302-5.397 1.077-5.397-1.804v-8.825c0-2.526-2.933-3.921-4.893-2.327l-8.758 7.122c-2.267 1.844-5.564-.312-4.784-3.128l6.417-23.155c.519-1.876 2.664-2.764 4.412-1.907M334.753 856.477h99.988l7.852-66.403s-25.585-42.792-55.49-67.605c-17.537-14.55-66.517-43.41-71.719-17.601-2.335 11.581-4.734 55.856-4.734 55.856s-15.527.885-13.628 6.913c1.899 6.027 7.593 7.862 13.628 36.427 6.034 28.565 24.103 52.413 24.103 52.413"/><path fill="#f2e6ff" d="M433.43 869.056c-55.163 24.837-83.887 5.103-95.403-7.415-2.838-3.085-.057-7.264 4.126-6.999 30.821 1.954 64.164-12.026 70.593-15.986 10.211-6.289 0-71.805-19.636-120.549-12.568-23.324-38.121-94.134-18.851-101.682 18.168-7.116 62.359-12.461 82.712-7.777 2.081.479 3.426 2.398 3.426 4.534v166.684c0 .059-.001.065.001.123.06 1.855 2.278 75.899-26.968 89.067M312.469 732.52l.524-8.386c7.409-1.172 22.988 2.858 27.842 3.562 4.855.703 5.621.234 5.366.937s.255-.937-4.855.938c-5.109 1.875-23.512 4.121-28.877 2.949"/><path fill="#f2e6ff" d="M334.523 817.167c4.703.082 10.236-1.525 13.524-2.63 1.178-.396 1.647-1.614.407-1.705-3.218-.236-10.691 1.958-14.716 1.023-4.778-1.108-10.101-4.775-13.67-4.438-.698.065-1.165.679-1.281 1.371-.141.84.259 1.68 1.019 2.064 3.437 1.734 9.583 4.226 14.717 4.315"/><defs><clipPath id="a"><path fill="#fff" d="M46 48h722v1022H46z"/></clipPath></defs></svg>

<svg width="822" height="1122" viewBox="0 0 822 1122" fill="none" xmlns="http://www.w3.org/2000/svg">
<rect width="822" height="1122" rx="20" fill="#1A0033"/>
<g clip-path="url(#clip0_25_285)">
<path d="M139.971 182.168C132.718 182.168 126.958 180.205 122.691 176.28C118.51 172.355 116.419 167.149 116.419 160.664C104.558 159.725 95.3417 155.331 88.771 147.48C82.2003 139.629 78.915 128.963 78.915 115.48C78.915 106.008 80.579 97.8587 83.907 91.032C87.235 84.2053 92.0563 79 98.371 75.416C104.686 71.832 112.238 70.04 121.027 70.04C129.816 70.04 137.368 71.832 143.683 75.416C149.998 79 154.819 84.2053 158.147 91.032C161.475 97.8587 163.139 106.008 163.139 115.48C163.139 129.389 159.64 140.312 152.643 148.248C145.646 156.184 135.875 160.408 123.331 160.92C123.331 166.04 124.91 169.88 128.067 172.44C131.31 175 135.619 176.28 140.995 176.28C146.542 176.28 151.363 174.915 155.459 172.184C155.8 171.928 156.099 171.8 156.355 171.8C156.696 171.8 156.995 172.056 157.251 172.568L159.043 175.384C159.214 175.64 159.299 175.939 159.299 176.28C159.299 176.792 159 177.176 158.403 177.432C155.416 179.139 152.472 180.333 149.571 181.016C146.755 181.784 143.555 182.168 139.971 182.168ZM121.027 155.032C132.206 155.032 140.91 151.661 147.139 144.92C153.368 138.093 156.483 128.28 156.483 115.48C156.483 102.68 153.368 92.9093 147.139 86.168C140.91 79.3413 132.206 75.928 121.027 75.928C109.848 75.928 101.144 79.3413 94.915 86.168C88.6857 92.9093 85.571 102.68 85.571 115.48C85.571 128.28 88.6857 138.093 94.915 144.92C101.144 151.661 109.848 155.032 121.027 155.032Z" fill="#B366FF"/>
<path d="M112.679 208.481C116.638 202.543 125.362 202.543 129.321 208.481L151.302 241.453C153.541 244.812 153.541 249.188 151.302 252.547L129.321 285.519C125.362 291.457 116.638 291.457 112.679 285.519L90.698 252.547C88.4587 249.188 88.4587 244.812 90.698 241.453L112.679 208.481Z" fill="#B366FF"/>
<path d="M674.029 935.832C681.282 935.832 687.042 937.795 691.309 941.72C695.49 945.645 697.581 950.851 697.581 957.336C709.442 958.275 718.658 962.669 725.229 970.52C731.8 978.371 735.085 989.037 735.085 1002.52C735.085 1011.99 733.421 1020.14 730.093 1026.97C726.765 1033.79 721.944 1039 715.629 1042.58C709.314 1046.17 701.762 1047.96 692.973 1047.96C684.184 1047.96 676.632 1046.17 670.317 1042.58C664.002 1039 659.181 1033.79 655.853 1026.97C652.525 1020.14 650.861 1011.99 650.861 1002.52C650.861 988.611 654.36 977.688 661.357 969.752C668.354 961.816 678.125 957.592 690.669 957.08C690.669 951.96 689.09 948.12 685.933 945.56C682.69 943 678.381 941.72 673.005 941.72C667.458 941.72 662.637 943.085 658.541 945.816C658.2 946.072 657.901 946.2 657.645 946.2C657.304 946.2 657.005 945.944 656.749 945.432L654.957 942.616C654.786 942.36 654.701 942.061 654.701 941.72C654.701 941.208 655 940.824 655.597 940.568C658.584 938.861 661.528 937.667 664.429 936.984C667.245 936.216 670.445 935.832 674.029 935.832ZM692.973 962.968C681.794 962.968 673.09 966.339 666.861 973.08C660.632 979.907 657.517 989.72 657.517 1002.52C657.517 1015.32 660.632 1025.09 666.861 1031.83C673.09 1038.66 681.794 1042.07 692.973 1042.07C704.152 1042.07 712.856 1038.66 719.085 1031.83C725.314 1025.09 728.429 1015.32 728.429 1002.52C728.429 989.72 725.314 979.907 719.085 973.08C712.856 966.339 704.152 962.968 692.973 962.968Z" fill="#B366FF"/>
<path d="M701.321 909.519C697.362 915.457 688.638 915.457 684.679 909.519L662.698 876.547C660.459 873.188 660.459 868.812 662.698 865.453L684.679 832.481C688.638 826.543 697.362 826.543 701.321 832.481L723.302 865.453C725.541 868.812 725.541 873.188 723.302 876.547L701.321 909.519Z" fill="#B366FF"/>
</g>
<path d="M517.951 488.236C508.178 460.172 529.448 447.409 517.951 444.909C506.455 442.409 479.021 420.045 472.489 415.368C465.957 410.691 478.864 439.05 479.282 450.079C479.7 461.108 470.921 484.379 466.48 494.637C483.985 519.993 522.341 500.84 517.951 488.236Z" fill="#8000FF"/>
<path d="M464.909 502.119C498.956 525.122 514.324 505.022 518.886 496.687C519.78 495.054 521.89 494.33 523.537 495.198C539.612 503.681 551.485 503.539 559.454 501.138C562.589 500.193 568.708 504.584 567.738 507.711C555.795 546.186 520.972 648.148 492.4 630.007C467.036 613.903 424.866 524.818 416.979 507.809C416.264 506.267 416.983 504.482 418.584 503.911C427.02 500.899 451.8 493.263 464.909 502.119Z" fill="#CC99FF"/>
<path d="M515.715 259.763C487.662 246.008 456.664 254.361 441.96 262.154C440.673 262.836 439.082 262.573 438.134 261.468L425.191 246.398C423.005 243.852 426.011 240.184 428.936 241.828L434.575 244.995C436.724 246.203 439.332 244.446 439.02 242L437.687 231.553C437.332 228.764 440.664 227.062 442.715 228.985L452.671 238.32C454.522 240.055 457.557 238.852 457.717 236.32L458.401 225.482C458.573 222.75 462.013 221.657 463.731 223.788L473.579 236.005C475.154 237.959 478.289 237.231 478.841 234.782L480.955 225.398C481.635 222.378 485.887 222.242 486.76 225.211L489.668 235.108C490.364 237.476 493.461 238.038 494.944 236.066L502.712 225.74C504.443 223.438 508.109 224.663 508.109 227.544V236.368C508.109 238.895 511.042 240.29 513.002 238.696L521.76 231.573C524.027 229.729 527.324 231.886 526.544 234.702L520.127 257.857C519.607 259.733 517.463 260.62 515.715 259.763Z" fill="#B366FF"/>
<path d="M532.953 282.771H432.965L425.112 349.173C425.112 349.173 450.698 391.966 480.603 416.779C498.14 431.329 547.12 460.189 552.322 434.38C554.657 422.799 557.056 378.524 557.056 378.524C557.056 378.524 572.582 377.639 570.684 371.611C568.785 365.584 563.091 363.749 557.056 335.184C551.021 306.619 532.953 282.771 532.953 282.771Z" fill="#B366FF"/>
<path d="M434.276 270.192C489.439 245.355 518.162 265.089 529.678 277.607C532.517 280.692 529.736 284.871 525.553 284.605C494.732 282.652 461.389 296.631 454.96 300.591C444.749 306.881 454.96 372.397 474.596 421.141C487.164 444.465 512.717 515.275 493.447 522.823C475.278 529.939 431.087 535.284 410.735 530.6C408.654 530.121 407.309 528.202 407.309 526.066V359.381C407.309 359.323 407.309 359.317 407.308 359.258C407.247 357.404 405.03 283.36 434.276 270.192Z" fill="#F2E6FF"/>
<path d="M555.236 406.728L554.713 415.114C547.304 416.286 531.725 412.255 526.87 411.552C522.016 410.849 521.249 411.318 521.505 410.615C521.76 409.911 521.249 411.552 526.359 409.677C531.469 407.802 549.871 405.556 555.236 406.728Z" fill="#F2E6FF"/>
<path d="M533.183 322.081C528.48 321.998 522.946 323.606 519.659 324.711C518.48 325.107 518.011 326.325 519.251 326.416C522.469 326.652 529.942 324.458 533.968 325.392C538.746 326.501 544.068 330.168 547.638 329.831C548.336 329.765 548.803 329.152 548.919 328.46C549.06 327.62 548.66 326.78 547.9 326.396C544.463 324.662 538.317 322.17 533.183 322.081Z" fill="#F2E6FF"/>
<path d="M349.754 651.012C359.528 679.076 338.258 691.839 349.754 694.339C361.251 696.839 388.685 719.203 395.217 723.88C401.749 728.558 388.841 700.198 388.423 689.169C388.005 678.141 396.784 654.869 401.226 644.611C383.72 619.255 345.365 638.408 349.754 651.012Z" fill="#8000FF"/>
<path d="M402.797 637.128C368.75 614.125 353.382 634.226 348.82 642.561C347.926 644.193 345.815 644.918 344.169 644.05C328.094 635.567 316.221 635.709 308.252 638.11C305.117 639.054 298.997 634.664 299.968 631.537C311.911 593.062 346.734 491.1 375.306 509.241C400.67 525.345 442.84 614.43 450.727 631.439C451.442 632.981 450.723 634.766 449.122 635.337C440.686 638.348 415.905 645.985 402.797 637.128Z" fill="#CC99FF"/>
<path d="M351.991 879.484C380.043 893.24 411.042 884.887 425.746 877.094C427.032 876.412 428.623 876.675 429.572 877.78L442.515 892.85C444.701 895.395 441.695 899.063 438.769 897.42L433.131 894.253C430.982 893.045 428.374 894.802 428.686 897.248L430.018 907.695C430.374 910.484 427.042 912.186 424.991 910.263L415.035 900.928C413.184 899.193 410.148 900.395 409.989 902.928L409.305 913.766C409.132 916.497 405.693 917.591 403.975 915.46L394.127 903.243C392.552 901.288 389.416 902.017 388.865 904.466L386.751 913.85C386.07 916.87 381.818 917.006 380.946 914.037L378.037 904.139C377.342 901.772 374.245 901.21 372.762 903.182L364.994 913.508C363.262 915.81 359.597 914.585 359.597 911.704V902.879C359.597 900.353 356.664 898.958 354.704 900.552L345.946 907.674C343.679 909.518 340.382 907.362 341.162 904.546L347.579 881.391C348.098 879.515 350.243 878.627 351.991 879.484Z" fill="#B366FF"/>
<path d="M334.753 856.477H434.741L442.593 790.074C442.593 790.074 417.008 747.282 387.103 722.469C369.566 707.919 320.586 679.059 315.384 704.868C313.049 716.449 310.65 760.724 310.65 760.724C310.65 760.724 295.123 761.609 297.022 767.637C298.921 773.664 304.615 775.499 310.65 804.064C316.684 832.629 334.753 856.477 334.753 856.477Z" fill="#B366FF"/>
<path d="M433.43 869.056C378.267 893.893 349.543 874.159 338.027 861.641C335.189 858.556 337.97 854.377 342.153 854.642C372.974 856.596 406.317 842.616 412.746 838.656C422.957 832.367 412.746 766.851 393.11 718.107C380.542 694.783 354.989 623.973 374.259 616.425C392.427 609.309 436.618 603.964 456.971 608.648C459.052 609.127 460.397 611.046 460.397 613.182L460.397 779.866C460.397 779.925 460.396 779.931 460.398 779.989C460.458 781.844 462.676 855.888 433.43 869.056Z" fill="#F2E6FF"/>
<path d="M312.469 732.52L312.993 724.134C320.402 722.962 335.981 726.992 340.835 727.696C345.69 728.399 346.456 727.93 346.201 728.633C345.945 729.336 346.456 727.696 341.346 729.571C336.237 731.446 317.834 733.692 312.469 732.52Z" fill="#F2E6FF"/>
<path d="M334.523 817.167C339.226 817.249 344.759 815.642 348.047 814.537C349.225 814.141 349.694 812.923 348.454 812.832C345.236 812.596 337.763 814.79 333.738 813.855C328.96 812.747 323.637 809.08 320.068 809.417C319.37 809.482 318.903 810.096 318.787 810.788C318.646 811.628 319.046 812.468 319.806 812.852C323.243 814.586 329.389 817.078 334.523 817.167Z" fill="#F2E6FF"/>
<defs>
<clipPath id="clip0_25_285">
<rect width="722" height="1022" fill="white" transform="translate(46 48)"/>
</clipPath>
</defs>
</svg>
